X: 20151
T: Joan's
R: reel
M: 4/4
K: Dmajor
B2AF BFAF|BFAF EDB,D|B2AF BFAF|EDFE DEFA|
B2AF BFAF|DF~F2 ABde|f2fe defe|dBAFD4:|
|:f2fe fgfe|dfed BAFA|Beefe2de|f2df edBA|
f2fe fgfe|dfed BAFB|ABde fdAF|EDFED4:|

